X: 1
P: The Ale Is Dear
C: Scots Guards
C: Arr. T. Traub 8-25-2004
R: Reel
K: Bm
M: 4/4
L: 1/8
|: c|"Bm"f2 ef B2 fe|"D"faea "A"cAec|"Bm"f2 ef B2 fe |"A"faec "Bm"BB B :| c| "Bm"BBBc dBcA|"A"AAAB ABcA|
"Bm"BBBc dBcA|"A"dfec "Bm"BBBc|"Bm"BBBc "D"dB"A"cA|"A"AAAB ABcA|"D"d2 fd "A"ccce|"F#m"faec "Bm"BB B |]
